X: 1640
T: The Scholar
M:2/4
L:1/16
B:O'Neill's 1640
N:"collected by Gillan"
K:D
AA \
| dfaf gfeg | fdAG FGA=c | BGFG EFGg | fdec dcBA |
| dfaf gfeg | fdAG FGA=c | BGFG EFGg |1 fgec d2 :|2 fgec defg :|
| a2fd dfaf | dfaf bagf | gfge =cege | =cege agfe |
| a^gaf dfaf | dfaf bagf | gfgf gbag |1 fdec defg :|2 fgec d2 :|


